subtitld/graphics/subtitles_panel_simplelist_properties_duration_timing_lock_open_icon.svg

<?xml version="1.0" encoding="UTF-8" standalone="no"?>
<svg
   width="16"
   height="16"
   version="1.1"
   viewBox="0 0 16 16"
   id="svg8"
   sodipodi:docname="subtitles_panel_simplelist_properties_duration_timing_lock_open_icon.svg"
   inkscape:version="1.1.2 (08b2f3d93c, 2022-04-05)"
   xmlns:inkscape="http://www.inkscape.org/namespaces/inkscape"
   xmlns:sodipodi="http://sodipodi.sourceforge.net/DTD/sodipodi-0.dtd"
   xmlns="http://www.w3.org/2000/svg"
   xmlns:svg="http://www.w3.org/2000/svg">
  <defs
     id="defs12" />
  <sodipodi:namedview
     id="namedview10"
     pagecolor="#ffffff"
     bordercolor="#666666"
     borderopacity="1.0"
     inkscape:pageshadow="2"
     inkscape:pageopacity="0.0"
     inkscape:pagecheckerboard="0"
     showgrid="false"
     inkscape:zoom="40.4"
     inkscape:cx="9.6410891"
     inkscape:cy="9.9876238"
     inkscape:window-width="1920"
     inkscape:window-height="1016"
     inkscape:window-x="0"
     inkscape:window-y="0"
     inkscape:window-maximized="1"
     inkscape:current-layer="svg8" />
  <path
     d="M 12.571429,5.3333335 H 11.809524 V 3.8095239 C 11.809524,1.7066666 10.102857,-2e-7 8.0000001,-2e-7 5.897143,-2e-7 4.1904763,1.7066666 4.1904763,3.8095239 h 1.5238096 c 0,-1.2647621 1.0209522,-2.2857144 2.2857142,-2.2857144 1.264763,0 2.2857149,1.0209523 2.2857149,2.2857144 V 5.3333335 H 3.4285715 c -0.8380953,0 -1.5238096,0.6857147 -1.5238096,1.5238097 V 14.476189 C 1.9047619,15.314285 2.5904762,16 3.4285715,16 h 9.1428575 c 0.838095,0 1.523809,-0.685715 1.523809,-1.523811 V 6.8571432 c 0,-0.838095 -0.685714,-1.5238097 -1.523809,-1.5238097 z m 0,9.1428555 H 3.4285715 V 6.8571432 H 12.571429 Z M 8.0000001,12.190475 c 0.838095,0 1.523809,-0.685714 1.523809,-1.523809 0,-0.8380948 -0.685714,-1.5238078 -1.523809,-1.5238078 -0.838095,0 -1.523809,0.685713 -1.523809,1.5238078 0,0.838095 0.685714,1.523809 1.523809,1.523809 z"
     id="path4"
     style="stroke-width:1;fill:#000000;fill-opacity:0.5" />
</svg>

<svg width="16" height="16" version="1.1" viewBox="0 0 16 16" xmlns="http://www.w3.org/2000/svg"><path d="m12.571 5.3333h-0.7619v-1.5238c0-2.1029-1.7067-3.8095-3.8095-3.8095-2.1029 0-3.8095 1.7067-3.8095 3.8095h1.5238c0-1.2648 1.021-2.2857 2.2857-2.2857 1.2648 0 2.2857 1.021 2.2857 2.2857v1.5238h-6.8571c-0.8381 0-1.5238 0.68571-1.5238 1.5238v7.619c0 0.8381 0.68571 1.5238 1.5238 1.5238h9.1429c0.8381 0 1.5238-0.68572 1.5238-1.5238v-7.619c0-0.8381-0.68571-1.5238-1.5238-1.5238zm0 9.1429h-9.1429v-7.619h9.1429zm-4.5714-2.2857c0.8381 0 1.5238-0.68571 1.5238-1.5238 0-0.83809-0.68571-1.5238-1.5238-1.5238s-1.5238 0.68571-1.5238 1.5238c0 0.8381 0.68571 1.5238 1.5238 1.5238z" fill-opacity=".5"/></svg>
